X:1
T:Title
%%score 1 { 2 | 3 }
L:1/8
Q:1/4=93
M:3/4
K:F
V:1 treble nm="Grand Piano, Unnamed-000"
V:2 treble nm="Choir Pad, Take the World"
V:3 bass 
V:1
 F>[FG] [FA]3 [FA] | [EG]>[FA] [Ec]2 [EB]2 | [GB]>[FA] [EG]3 F | [EG]>[EA] [CF]4 | %4
w: By~John~Robson~Sweney,~1879 * * *||||
 [CF]>[CG] [FA]3 [FA] | [EG]>[FA] [Ec]2 [EB]2 | [GB]>[FA] [EG]3 F | [FA]>[EG] [CF]4 | %8
w: ||||
 [Fc]>[Fc] [Fd]3 [Fd] | [FB]>[Fd] [Fc]2 [FA]2 | [FA]>[FA] [EG]3 G | [FA]>[Fc] [Ec]4 | %12
w: ||||
 [CF]>[CG] [FA]3 [FA] | [EG]>[FA] [Ec]2 [EB]2 | [GB]>[FA] [EG]3 F | [FA]>[EG] [CF]4- | [CF]4 z2 |] %17
w: |||||
V:2
 A,>B, C3 C | C>C C2 C2 | C>C[K:bass] B,3 A, | B,>C A,4 | A,>B,[K:treble] C3 C | C>C C2 C2 | %6
 C>C[K:bass] B,3 A, | C>B, A,4 | A,>A, B,3 B, | D>B, A,2[K:treble] C2 | C>C C3 E | %11
 D>D C2[K:bass] B,2 | A,>B, C3 C | C>C C2 C2 | C>C[K:bass] B,3 A, | C>B, A,4- | A,4 z2 |] %17
V:3
 F,>F, F,3 F, | B,>A, G,2 G,2 | C,>C, C,3 C, | C,>C, F,4 | F,>F, F,3 F, | B,>A, G,2 G,2 | %6
 C,>C, C,3 C, | C,>C, F,4 | F,>F, z2 z B,, | B,,>B,, F,2 F,2 | F,>F, G,3 G, | G,>G, C,4 | %12
 F,>F, F,3 F, | B,>A, G,2 G,2 | C,>C, C,3 C, | C,>C, F,4- | F,4 z2 |] %17

